icons/op-attachmentadd-16.svg

<svg width="16" height="16" viewBox="0 0 16 16" fill="none" xmlns="http://www.w3.org/2000/svg">
<path d="M2.83228 12.9906C3.31031 13.5756 4.17255 13.6115 4.74716 12.9664L10.3751 6.64881C10.521 6.48502 10.521 6.27756 10.3751 6.11376C10.2291 5.94997 10.0443 5.94997 9.89842 6.11376L5.24325 11.3395C5.1122 11.4815 4.9367 11.5601 4.75452 11.5584C4.57235 11.5566 4.39808 11.4746 4.26926 11.33C4.14044 11.1853 4.06737 10.9897 4.06578 10.7852C4.0642 10.5807 4.13423 10.3837 4.2608 10.2366L8.91597 5.01091C9.07462 4.82765 9.2644 4.68198 9.47408 4.5825C9.68377 4.48303 9.9091 4.43177 10.1367 4.43177C10.3644 4.43177 10.5897 4.48303 10.7994 4.5825C11.0091 4.68198 11.1989 4.82765 11.3575 5.01091C11.5208 5.189 11.6505 5.40204 11.7391 5.63742C11.8278 5.87281 11.8734 6.12575 11.8734 6.38129C11.8734 6.63683 11.8278 6.88977 11.7391 7.12515C11.6505 7.36054 11.5208 7.57358 11.3575 7.75167L5.72961 14.0693C4.64085 15.2923 2.8705 15.332 1.81787 14.0576C0.73954 12.8338 0.708275 10.8567 1.83872 9.67971L8.42961 2.28107C9.95122 0.572975 12.3372 0.572976 13.8588 2.28107C15.3804 3.98917 15.3804 6.66753 13.8588 8.37563C13.7277 8.51771 13.5522 8.59632 13.3701 8.59454C13.1879 8.59277 13.0136 8.51074 12.8848 8.36613C12.756 8.22152 12.6829 8.0259 12.6813 7.8214C12.6797 7.6169 12.7498 7.41988 12.8763 7.27278C13.856 6.17304 13.856 4.48366 12.8763 3.38393C11.8967 2.28419 10.3917 2.28419 9.41206 3.38393L2.81144 10.7935L2.7899 10.8169C2.2688 11.3527 2.23684 12.3214 2.81144 12.9664C2.81853 12.9743 2.82548 12.9824 2.83228 12.9906Z" fill="#1F2328"/>
<path d="M12.25 9.5C12.6642 9.5 13 9.83579 13 10.25V11.5H14.25C14.6642 11.5 15 11.8358 15 12.25C15 12.6642 14.6642 13 14.25 13H13V14.25C13 14.6642 12.6642 15 12.25 15C11.8358 15 11.5 14.6642 11.5 14.25V13H10.25C9.83579 13 9.5 12.6642 9.5 12.25C9.5 11.8358 9.83579 11.5 10.25 11.5H11.5V10.25C11.5 9.83579 11.8358 9.5 12.25 9.5Z" fill="#1F2328"/>
</svg>

<svg xmlns="http://www.w3.org/2000/svg" width="16" height="16" viewBox="0 0 16 16"><path d="M2.832 12.991c.478.585 1.341.62 1.915-.025l5.628-6.317a.381.381 0 0 0 0-.535c-.146-.164-.331-.164-.477 0l-4.655 5.225a.651.651 0 0 1-.488.219.655.655 0 0 1-.486-.228.826.826 0 0 1-.203-.545.828.828 0 0 1 .195-.548l4.655-5.226c.159-.183.348-.329.558-.429a1.55 1.55 0 0 1 1.325 0c.21.1.4.246.558.429.164.178.293.391.382.626.089.236.134.489.134.744 0 .256-.045.509-.134.744a1.924 1.924 0 0 1-.382.627L5.73 14.069c-1.089 1.223-2.86 1.263-3.912-.011-1.078-1.224-1.11-3.201.021-4.378L8.43 2.281c1.521-1.708 3.907-1.708 5.429 0 1.521 1.708 1.521 4.387 0 6.095a.66.66 0 0 1-.489.219.66.66 0 0 1-.485-.229.83.83 0 0 1-.204-.545.839.839 0 0 1 .195-.548 2.94 2.94 0 0 0 0-3.889c-.979-1.1-2.484-1.1-3.464 0l-6.601 7.409-.021.024c-.521.536-.553 1.504.021 2.149l.021.025Z"/><path d="M12.25 9.5a.75.75 0 0 1 .75.75v1.25h1.25a.75.75 0 0 1 0 1.5H13v1.25a.75.75 0 0 1-1.5 0V13h-1.25a.75.75 0 0 1 0-1.5h1.25v-1.25a.75.75 0 0 1 .75-.75Z"/></svg>
